X:1
T:Eucharist
T:Woodbury
T:Eucharist
C:Woodbury
%%score { ( 1 2 ) | ( 3 4 ) }
L:1/8
Q:1/2=120
M:4/2
K:D
V:1 treble nm="Piano" snm="Pno."
V:2 treble 
V:3 bass 
V:4 bass 
V:1
 F8 F4 F4 | A12 A4 | (B4 A4) (G4 A4) | F12 F4 | (E6 F2 G4) E4 | (F6 G2 A4) F4 | (E4 A4) (c4 B4) | %7
 A8 z8 | F8 F4 F4 | A12 A4 | (B4 A4) (G4 A4) | F12 A4 | (d4 c4 B4) A4 | (B4 c4) (d4 B4) | %14
 (A4 F4) (G4 A4) | F16 |] %16
V:2
 D8 D4 D4 | F12 F4 | (G4 F4) (E4 F4) | D12 D4 | (C6 D2 E4) C4 | (D6 E2 F4) D4 | (C4 E4) (E4 D4) | %7
 C8 z8 | D8 D4 D4 | F12 F4 | (G4 F4) (E4 F4) | D12 F4 | (F4 A4 G4) F4 | G4 A4 B4 G4 | %14
 (F4 D4) (E4 F4) | D16 |] %16
V:3
 A,8 A,4 A,4 | D12 D4 | D8 A,8 | A,12 A,4 | A,12 A,4 | A,12 A,4 | (A,4 C4) (A,4 ^G,4) | A,8 z8 | %8
 A,8 A,4 A,4 | D12 D4 | D8 A,8 | A,12 D4 | D12 D4 | D12 D4 | (D4 A,4) A,8 | A,16 |] %16
V:4
 D,8 D,4 D,4 | D,12 D,4 | D,8 D,8 | D,12 D,4 | A,,12 A,,4 | D,12 D,4 | E,8 E,8 | A,,8 z8 | %8
 D,8 D,4 D,4 | D,12 D,4 | D,8 D,8 | D,12 D,4 | D,12 D,4 | G,12 G,4 | A,8 A,,8 | D,16 |] %16

